X: 1
T: the Fireworks  [ABABA]
O: 1750
M: 6/8
L: 1/8
B: J.Johnson Choice Collection Vol 5, 1750 (JJo5.031)
Z: vmp.Mike Hicken 2015 www.village-music-project.org.uk (Chords by John Chambers 2016-6)
K: C
%Q: 3/8=120
K: A
e "A"|\
"A"cAc "E7"dBA | "E7"GEG "D"A2D |\
[1,3 "A"CEA "E7"B,AG | "A"AEC "(E7)"A,2 :|\
[2,4 "A"CEA "E7"B,2G | "A"!fermata!A3 A,2 |]
B "B"|\
"E"efg "F#m"afe | "B7"^dBd "A"e2A |\
[1,3 "E"GBe "B7"Fe^d | "F#m"cfe "B7"^dc :|\
[2,4 "E"GBe "B7"F2^d | "E"e3 "E7"z2e/!D.C.!=d/ |]
